!!!OTL: Hail, Hail, the Gang's All Here
!!!COM: Morse, Theodore, and Arthur Sullivan
!!!LYR: Esrom, D.A.
!!!ODT: 1917
!!!YOR: The Folksong Fake Book
!!!YOY: 2000
!!!AST: Occasional
!!!YEC: Brian Luke, 2001
**kern	**harm
*k[f#]	*k[f#]
*M4/4	*M4/4
*G:	*G:
*>A	*>A
=1	=1
2b	I
4.b	.
8a	.
=2	=2
4a	.
4g	.
2d	.
=3	=3
8d	V7
8e	.
8f#	.
8d	.
4e	.
4d	.
=4	=4
8d	.
8e	.
8f#	.
8d	.
4e	.
4d	.
*>A'	*>A'
=5	=5
2b	I
4.b	.
8a	.
=6	=6
4a	.
4g	.
2d	.
=7	=7
8d	V7
8e	.
8f#	.
8g	.
4a	.
4dd	.
=8	=8
1g	I;
*-	*-
